public/images/poses-sm/SidePlank.svg

<svg width="800" height="900" fill="none" xmlns="http://www.w3.org/2000/svg"><path d="M357.404 493.234c.415 1.258-21.267 46.618-20.394 48.09 16.056 26.963 107.791 90.211 138.462 107.584 5.963 3.379 11.599 7.269 16.923 11.578 23.398 18.925 90.298 49.623 115.18 59.194 21.278 8.185 31.488 23.391 35.259 30.476 2.041 3.829 4.563 7.404 7.746 10.351 12.528 11.602 15.87-.807 15.87-6.533 0-6.544-.514-39.316-15.786-41.496l-.817-.123c-13.737-2.056-26.24-9.038-35.374-19.498-20.266-23.211-34.113-32.348-108.711-83.993" fill="#fff"/><path d="M357.404 493.234c.415 1.258-21.267 46.618-20.394 48.09 16.056 26.963 107.791 90.211 138.462 107.584 5.963 3.379 11.599 7.269 16.923 11.578 23.398 18.925 90.298 49.623 115.18 59.194 21.278 8.185 31.488 23.391 35.259 30.476 2.041 3.829 4.563 7.404 7.746 10.351 12.528 11.602 15.87-.807 15.87-6.533 0-6.544-.514-39.316-15.786-41.496l-.817-.123c-13.737-2.056-26.24-9.038-35.374-19.498-20.266-23.211-34.113-32.348-108.711-83.993" stroke="#000" stroke-width="5" stroke-miterlimit="10"/><path d="M357.404 493.234c.415 1.258-21.267 46.618-20.394 48.09 16.056 26.963 107.791 90.211 138.462 107.584 5.963 3.379 11.599 7.269 16.923 11.578 23.398 18.925 90.298 49.623 115.18 59.194 21.278 8.185 31.488 23.391 35.259 30.476 2.041 3.829 4.563 7.404 7.746 10.351 12.528 11.602 15.87-.807 15.87-6.533 0-6.544-.514-39.316-15.786-41.496l-.817-.123c-13.737-2.056-26.24-9.038-35.374-19.498-20.266-23.211-34.113-32.348-108.711-83.993" stroke="#000" stroke-width="5" stroke-miterlimit="10"/><path d="M337.01 540.162c.899 0 29.592-80.79 30.544-80.724 42.318 2.955 132.028 72.748 158.209 100.7 4.994 5.336 12.411 12.64 18.59 16.543 26.512 16.741 79.238 74.845 98.678 92.272 17.781 15.942 20.534 16.687 37.613 18.803.779.095 1.536.354 2.274.624 24.726 9.017 12.109 17.969 6.035 20.121-6.17 2.186-33.041 12.845-40.196-.823-4.856-9.272-5.228-12.308-8.418-15.056-1.374-1.181-9.251-5.563-10.942-6.215-45.625-17.491-123.634-77.541-123.634-77.541l-79.633-57.409" fill="#fff"/><path d="M337.01 540.162c.899 0 29.592-80.79 30.544-80.724 42.318 2.955 132.028 72.748 158.209 100.7 4.994 5.336 12.411 12.64 18.59 16.543 26.512 16.741 79.238 74.845 98.678 92.272 17.781 15.942 20.534 16.687 37.613 18.803.779.095 1.536.354 2.274.624 24.726 9.017 12.109 17.969 6.035 20.121-6.17 2.186-33.041 12.845-40.196-.823-4.856-9.272-5.228-12.308-8.418-15.056-1.374-1.181-9.251-5.563-10.942-6.215-45.625-17.491-123.634-77.541-123.634-77.541l-79.633-57.409" stroke="#000" stroke-width="5" stroke-miterlimit="10"/><path d="M337.01 540.162c.899 0 29.592-80.79 30.544-80.724 42.318 2.955 132.028 72.748 158.209 100.7 4.994 5.336 12.411 12.64 18.59 16.543 26.512 16.741 79.238 74.845 98.678 92.272 17.781 15.942 20.534 16.687 37.613 18.803.779.095 1.536.354 2.274.624 24.726 9.017 12.109 17.969 6.035 20.121-6.17 2.186-33.041 12.845-40.196-.823-4.856-9.272-5.228-12.308-8.418-15.056-1.374-1.181-9.251-5.563-10.942-6.215-45.625-17.491-123.634-77.541-123.634-77.541l-79.633-57.409" stroke="#000" stroke-width="5" stroke-miterlimit="10"/><path d="M293.378 439.803c-8.727-4.364-28.363-10.909-30.544-15.272-2.182-4.363 0-74.178-2.182-91.631-2.181-17.454-8.727-61.088-17.453-85.087-8.727-23.999-17.455-47.997-19.636-65.452-2.182-17.454 4.249-52.361-17.454-52.361-30.659 0 2.182 43.635 4.363 58.907 2.182 15.272 13.091 76.36 17.455 95.995 4.362 19.635 6.545 23.999 4.362 52.362-2.181 28.362-13.09 102.54-13.09 102.54l26.18 6.545 43.635 6.545 4.364-13.091Z" fill="#fff" stroke="#000" stroke-width="5" stroke-miterlimit="10"/><path d="M293.378 439.803c-8.727-4.364-28.363-10.909-30.544-15.272-2.182-4.363 0-74.178-2.182-91.631-2.181-17.454-8.727-61.088-17.453-85.087-8.727-23.999-17.455-47.997-19.636-65.452-2.182-17.454 4.249-52.361-17.454-52.361-30.659 0 2.182 43.635 4.363 58.907 2.182 15.272 13.091 76.36 17.455 95.995 4.362 19.635 6.545 23.999 4.362 52.362-2.181 28.362-13.09 102.54-13.09 102.54l26.18 6.545 43.635 6.545 4.364-13.091Z" stroke="#000" stroke-width="5" stroke-miterlimit="10"/><path d="M197.38 505.254c-2.181 17.454 4.363 50.179 6.546 69.815 2.181 19.635 6.545 39.271 6.545 58.907 0 19.635-6.545 102.541-10.908 109.086-4.364 6.544-10.909 6.544-21.817 10.907-10.91 4.365-19.636 4.365-23.999 8.729-4.364 4.363 0 4.363 6.545 4.363s39.271 4.363 47.998 0c8.726-4.363 13.09-21.817 21.817-65.451 8.727-43.635 13.09-102.542 13.09-126.54v-32.728l6.546-26.18-15.272-13.09-30.544-2.181-6.547 4.363Z" fill="#fff" stroke="#000" stroke-width="5" stroke-miterlimit="10"/><path d="M197.38 505.254c-2.181 17.454 4.363 50.179 6.546 69.815 2.181 19.635 6.545 39.271 6.545 58.907 0 19.635-6.545 102.541-10.908 109.086-4.364 6.544-10.909 6.544-21.817 10.907-10.91 4.365-19.636 4.365-23.999 8.729-4.364 4.363 0 4.363 6.545 4.363s39.271 4.363 47.998 0c8.726-4.363 13.09-21.817 21.817-65.451 8.727-43.635 13.09-102.542 13.09-126.54v-32.728l6.546-26.18-15.272-13.09-30.544-2.181-6.547 4.363Z" stroke="#000" stroke-width="5" stroke-miterlimit="10"/><path d="M367.554 459.439c-15.272-2.181 0 0-34.908-6.545-13.729-2.574-65.451-23.998-65.451-23.998s4.363 10.909-15.272 13.09c-19.516 2.169-30.545-13.09-30.545-13.09s-2.181 17.455-8.726 19.635c-6.546 2.182-43.635 8.727-54.544 4.363-10.908-4.363-13.09 34.908-13.09 34.908s47.997-10.909 54.543 0c0 0 2.182 2.182 0 8.727-2.181 6.545-2.181 8.727-2.181 8.727s19.635-4.363 32.726 4.364c13.091 8.728 13.091 26.18 13.091 30.544 0 0 14.818-3.184 34.907-2.181 43.635 2.181 26.181 0 58.907 2.181 21.908-21.797 24.667-47.357 30.543-80.725Z" fill="#fff" stroke="#000" stroke-width="5" stroke-miterlimit="10"/><path d="M367.554 459.439c-15.272-2.181 0 0-34.908-6.545-13.729-2.574-65.451-23.998-65.451-23.998s4.363 10.909-15.272 13.09c-19.516 2.169-30.545-13.09-30.545-13.09s-2.181 17.455-8.726 19.635c-6.546 2.182-43.635 8.727-54.544 4.363-10.908-4.363-13.09 34.908-13.09 34.908s47.997-10.909 54.543 0c0 0 2.182 2.182 0 8.727-2.181 6.545-2.181 8.727-2.181 8.727s19.635-4.363 32.726 4.364c13.091 8.728 13.091 26.18 13.091 30.544 0 0 14.818-3.184 34.907-2.181 43.635 2.181 26.181 0 58.907 2.181 21.908-21.797 24.667-47.357 30.543-80.725Z" stroke="#000" stroke-width="5" stroke-miterlimit="10"/><path d="M150.856 484.028c-7.742 1.567-13.159-3.655-21.731-5.061-13.617-2.239-21.234-22.192-15.62-36.556 7.417-18.961 76.759 2.65 74.295 14.233-1.461 6.86-10.998 17.116-24.867 22.306-4.46 1.67-12.077 5.078-12.077 5.078Z" fill="#fff" stroke="#000" stroke-width="5" stroke-miterlimit="10"/><path d="M150.856 484.028c-7.742 1.567-13.159-3.655-21.731-5.061-13.617-2.239-21.234-22.192-15.62-36.556 7.417-18.961 76.759 2.65 74.295 14.233-1.461 6.86-10.998 17.116-24.867 22.306-4.46 1.67-12.077 5.078-12.077 5.078Z" stroke="#000" stroke-width="5" stroke-miterlimit="10"/><path d="M124.2 436.96c12.032 4.212 31.023 20.288 22.078 34.189-10.061 15.624 2.439 12 6.097 11.715 3.657-.286 12.455-6.602 12.813-4.598.357 2.002-16.577 20.796-34.799 17.396-18.22-3.399-24.292-12.742-26.704-23.56-2.412-10.817 1.675-25.89 10.212-33.093 8.535-7.208 10.303-2.049 10.303-2.049Z" fill="#100200" stroke="#000" stroke-width="5" stroke-miterlimit="10"/><path d="M218.378 443.349c9.546 9.544 11.012 21.162 5.182 31.361-8.727 15.273-23.048 17.171-23.048 17.171" stroke="#000" stroke-width="5" stroke-miterlimit="10"/><path d="M602.35 717.606s16.282-5.356 15.994-20.723Z" fill="#fff"/><path d="M602.35 717.606s16.282-5.356 15.994-20.723" stroke="#000" stroke-width="5" stroke-miterlimit="10"/><path d="M602.35 717.606s16.282-5.356 15.994-20.723" stroke="#000" stroke-width="5" stroke-miterlimit="10"/><path d="M625.633 684.898s16.289-5.356 14.114-18.97Z" fill="#fff"/><path d="M625.633 684.898s16.289-5.356 14.114-18.97" stroke="#000" stroke-width="5" stroke-miterlimit="10"/><path d="M625.633 684.898s16.289-5.356 14.114-18.97" stroke="#000" stroke-width="5" stroke-miterlimit="10"/></svg>

<svg width="800" height="900" viewBox="0 0 800 900" fill="none" xmlns="http://www.w3.org/2000/svg">
<path d="M357.404 493.234C357.819 494.492 336.137 539.852 337.01 541.324C353.066 568.287 444.801 631.535 475.472 648.908C481.435 652.287 487.071 656.177 492.395 660.486C515.793 679.411 582.693 710.109 607.575 719.68C628.853 727.865 639.063 743.071 642.834 750.156C644.875 753.985 647.397 757.56 650.58 760.507C663.108 772.109 666.45 759.7 666.45 753.974C666.45 747.43 665.936 714.658 650.664 712.478C650.39 712.436 650.116 712.395 649.847 712.355C636.11 710.299 623.607 703.317 614.473 692.857C594.207 669.646 580.36 660.509 505.762 608.864" fill="white"/>
<path d="M357.404 493.234C357.819 494.492 336.137 539.852 337.01 541.324C353.066 568.287 444.801 631.535 475.472 648.908C481.435 652.287 487.071 656.177 492.395 660.486C515.793 679.411 582.693 710.109 607.575 719.68C628.853 727.865 639.063 743.071 642.834 750.156C644.875 753.985 647.397 757.56 650.58 760.507C663.108 772.109 666.45 759.7 666.45 753.974C666.45 747.43 665.936 714.658 650.664 712.478C650.39 712.436 650.116 712.395 649.847 712.355C636.11 710.299 623.607 703.317 614.473 692.857C594.207 669.646 580.36 660.509 505.762 608.864" stroke="black" stroke-width="5" stroke-miterlimit="10"/>
<path d="M357.404 493.234C357.819 494.492 336.137 539.852 337.01 541.324C353.066 568.287 444.801 631.535 475.472 648.908C481.435 652.287 487.071 656.177 492.395 660.486C515.793 679.411 582.693 710.109 607.575 719.68C628.853 727.865 639.063 743.071 642.834 750.156C644.875 753.985 647.397 757.56 650.58 760.507C663.108 772.109 666.45 759.7 666.45 753.974C666.45 747.43 665.936 714.658 650.664 712.478C650.39 712.436 650.116 712.395 649.847 712.355C636.11 710.299 623.607 703.317 614.473 692.857C594.207 669.646 580.36 660.509 505.762 608.864" stroke="black" stroke-width="5" stroke-miterlimit="10"/>
<path d="M337.01 540.162C337.909 540.162 366.602 459.372 367.554 459.438C409.872 462.393 499.582 532.186 525.763 560.138C530.757 565.474 538.174 572.778 544.353 576.681C570.865 593.422 623.591 651.526 643.031 668.953C660.812 684.895 663.565 685.64 680.644 687.756C681.423 687.851 682.18 688.11 682.918 688.38C707.644 697.397 695.027 706.349 688.953 708.501C682.783 710.687 655.912 721.346 648.757 707.678C643.901 698.406 643.529 695.37 640.339 692.622C638.965 691.441 631.088 687.059 629.397 686.407C583.772 668.916 505.763 608.866 505.763 608.866L426.13 551.457" fill="white"/>
<path d="M337.01 540.162C337.909 540.162 366.602 459.372 367.554 459.438C409.872 462.393 499.582 532.186 525.763 560.138C530.757 565.474 538.174 572.778 544.353 576.681C570.865 593.422 623.591 651.526 643.031 668.953C660.812 684.895 663.565 685.64 680.644 687.756C681.423 687.851 682.18 688.11 682.918 688.38C707.644 697.397 695.027 706.349 688.953 708.501C682.783 710.687 655.912 721.346 648.757 707.678C643.901 698.406 643.529 695.37 640.339 692.622C638.965 691.441 631.088 687.059 629.397 686.407C583.772 668.916 505.763 608.866 505.763 608.866L426.13 551.457" stroke="black" stroke-width="5" stroke-miterlimit="10"/>
<path d="M337.01 540.162C337.909 540.162 366.602 459.372 367.554 459.438C409.872 462.393 499.582 532.186 525.763 560.138C530.757 565.474 538.174 572.778 544.353 576.681C570.865 593.422 623.591 651.526 643.031 668.953C660.812 684.895 663.565 685.64 680.644 687.756C681.423 687.851 682.18 688.11 682.918 688.38C707.644 697.397 695.027 706.349 688.953 708.501C682.783 710.687 655.912 721.346 648.757 707.678C643.901 698.406 643.529 695.37 640.339 692.622C638.965 691.441 631.088 687.059 629.397 686.407C583.772 668.916 505.763 608.866 505.763 608.866L426.13 551.457" stroke="black" stroke-width="5" stroke-miterlimit="10"/>
<path d="M293.378 439.803C284.651 435.439 265.015 428.894 262.834 424.531C260.652 420.168 262.834 350.353 260.652 332.9C258.471 315.446 251.925 271.812 243.199 247.813C234.472 223.814 225.744 199.816 223.563 182.361C221.381 164.907 227.812 130 206.109 130C175.45 130 208.291 173.635 210.472 188.907C212.654 204.179 223.563 265.267 227.927 284.902C232.289 304.537 234.472 308.901 232.289 337.264C230.108 365.626 219.199 439.804 219.199 439.804L245.379 446.349L289.014 452.894L293.378 439.803Z" fill="white" stroke="black" stroke-width="5" stroke-miterlimit="10"/>
<path d="M293.378 439.803C284.651 435.439 265.015 428.894 262.834 424.531C260.652 420.168 262.834 350.353 260.652 332.9C258.471 315.446 251.925 271.812 243.199 247.813C234.472 223.814 225.744 199.816 223.563 182.361C221.381 164.907 227.812 130 206.109 130C175.45 130 208.291 173.635 210.472 188.907C212.654 204.179 223.563 265.267 227.927 284.902C232.289 304.537 234.472 308.901 232.289 337.264C230.108 365.626 219.199 439.804 219.199 439.804L245.379 446.349L289.014 452.894L293.378 439.803Z" stroke="black" stroke-width="5" stroke-miterlimit="10"/>
<path d="M197.38 505.254C195.199 522.708 201.743 555.433 203.926 575.069C206.107 594.704 210.471 614.34 210.471 633.976C210.471 653.611 203.926 736.517 199.563 743.062C195.199 749.606 188.654 749.606 177.746 753.969C166.836 758.334 158.11 758.334 153.747 762.698C149.383 767.061 153.747 767.061 160.292 767.061C166.837 767.061 199.563 771.424 208.29 767.061C217.016 762.698 221.38 745.244 230.107 701.61C238.834 657.975 243.197 599.068 243.197 575.07V542.342L249.743 516.162L234.471 503.072L203.927 500.891L197.38 505.254Z" fill="white" stroke="black" stroke-width="5" stroke-miterlimit="10"/>
<path d="M197.38 505.254C195.199 522.708 201.743 555.433 203.926 575.069C206.107 594.704 210.471 614.34 210.471 633.976C210.471 653.611 203.926 736.517 199.563 743.062C195.199 749.606 188.654 749.606 177.746 753.969C166.836 758.334 158.11 758.334 153.747 762.698C149.383 767.061 153.747 767.061 160.292 767.061C166.837 767.061 199.563 771.424 208.29 767.061C217.016 762.698 221.38 745.244 230.107 701.61C238.834 657.975 243.197 599.068 243.197 575.07V542.342L249.743 516.162L234.471 503.072L203.927 500.891L197.38 505.254Z" stroke="black" stroke-width="5" stroke-miterlimit="10"/>
<path d="M367.554 459.439C352.282 457.258 367.554 459.439 332.646 452.894C318.917 450.32 267.195 428.896 267.195 428.896C267.195 428.896 271.558 439.805 251.923 441.986C232.407 444.155 221.378 428.896 221.378 428.896C221.378 428.896 219.197 446.351 212.652 448.531C206.106 450.713 169.017 457.258 158.108 452.894C147.2 448.531 145.018 487.802 145.018 487.802C145.018 487.802 193.015 476.893 199.561 487.802C199.561 487.802 201.743 489.984 199.561 496.529C197.38 503.074 197.38 505.256 197.38 505.256C197.38 505.256 217.015 500.893 230.106 509.62C243.197 518.348 243.197 535.8 243.197 540.164C243.197 540.164 258.015 536.98 278.104 537.983C321.739 540.164 304.285 537.983 337.011 540.164C358.919 518.367 361.678 492.807 367.554 459.439Z" fill="white" stroke="black" stroke-width="5" stroke-miterlimit="10"/>
<path d="M367.554 459.439C352.282 457.258 367.554 459.439 332.646 452.894C318.917 450.32 267.195 428.896 267.195 428.896C267.195 428.896 271.558 439.805 251.923 441.986C232.407 444.155 221.378 428.896 221.378 428.896C221.378 428.896 219.197 446.351 212.652 448.531C206.106 450.713 169.017 457.258 158.108 452.894C147.2 448.531 145.018 487.802 145.018 487.802C145.018 487.802 193.015 476.893 199.561 487.802C199.561 487.802 201.743 489.984 199.561 496.529C197.38 503.074 197.38 505.256 197.38 505.256C197.38 505.256 217.015 500.893 230.106 509.62C243.197 518.348 243.197 535.8 243.197 540.164C243.197 540.164 258.015 536.98 278.104 537.983C321.739 540.164 304.285 537.983 337.011 540.164C358.919 518.367 361.678 492.807 367.554 459.439Z" stroke="black" stroke-width="5" stroke-miterlimit="10"/>
<path d="M150.856 484.028C143.114 485.595 137.697 480.373 129.125 478.967C115.508 476.728 107.891 456.775 113.505 442.411C120.922 423.45 190.264 445.061 187.8 456.644C186.339 463.504 176.802 473.76 162.933 478.95C158.473 480.62 150.856 484.028 150.856 484.028Z" fill="white" stroke="black" stroke-width="5" stroke-miterlimit="10"/>
<path d="M150.856 484.028C143.114 485.595 137.697 480.373 129.125 478.967C115.508 476.728 107.891 456.775 113.505 442.411C120.922 423.45 190.264 445.061 187.8 456.644C186.339 463.504 176.802 473.76 162.933 478.95C158.473 480.62 150.856 484.028 150.856 484.028Z" stroke="black" stroke-width="5" stroke-miterlimit="10"/>
<path d="M124.2 436.96C136.232 441.172 155.223 457.248 146.278 471.149C136.217 486.773 148.717 483.149 152.375 482.864C156.032 482.578 164.83 476.262 165.188 478.266C165.545 480.268 148.611 499.062 130.389 495.662C112.169 492.263 106.097 482.92 103.685 472.102C101.273 461.285 105.36 446.212 113.897 439.009C122.432 431.801 124.2 436.96 124.2 436.96Z" fill="#100200" stroke="black" stroke-width="5" stroke-miterlimit="10"/>
<path d="M218.378 443.349C227.924 452.893 229.39 464.511 223.56 474.71C214.833 489.983 200.512 491.881 200.512 491.881" stroke="black" stroke-width="5" stroke-miterlimit="10"/>
<path d="M602.35 717.606C602.35 717.606 618.632 712.25 618.344 696.883Z" fill="white"/>
<path d="M602.35 717.606C602.35 717.606 618.632 712.25 618.344 696.883" stroke="black" stroke-width="5" stroke-miterlimit="10"/>
<path d="M602.35 717.606C602.35 717.606 618.632 712.25 618.344 696.883" stroke="black" stroke-width="5" stroke-miterlimit="10"/>
<path d="M625.633 684.898C625.633 684.898 641.922 679.542 639.747 665.928Z" fill="white"/>
<path d="M625.633 684.898C625.633 684.898 641.922 679.542 639.747 665.928" stroke="black" stroke-width="5" stroke-miterlimit="10"/>
<path d="M625.633 684.898C625.633 684.898 641.922 679.542 639.747 665.928" stroke="black" stroke-width="5" stroke-miterlimit="10"/>
</svg>
